!!!OTL: Verzweiflung, 3. Melodie, (126a), S. 286
!!!id: T0293V
**kern
*clefG2
*k[f#]
*G:
{4d
=1
8d
8b
8a
8g
8g
8f#
8e
8d
=2
8d
8b
4g}
4r
=3
{4d
=4
8d
8b
8a
8g
8g
8f#
8e
8d
=5
8d
8b
4g}
4r
=6
{8b
8cc
=7
8dd
8b
8b
8b
4b
8a
8b
=8
2cc}
4r
=9
{8cc
8cc
=10
8b
8b
8a
8a
4dd
8dd
8cc
=11
2b}
4r
==
*-
!!!minrhy: 8
!!!meters: 4/4 ]  ZZ[4
!!!cut: Verzweiflung, 3. Melodie, (126a), S. 286
!!!reg: Luxemburg
!!!trd: Singendes Volk, Esch-Alzette 1937 posth.
!!!rhy1: X_  XXXXXXXX  XXX_0_
!!!rhy2: X_  XXXXXXXX  XXX_0_
!!!key: T0293V 08  G 4/4 ]  ZZ[4
!!!mod: HEPTATONIK IONISCH]  AMBITUS[8
!!!kad: 1143
!!!akz: -51-5_-51-5_534_353_
!!!fot: 'a__a__b__c__
!!!for: 'a__a__b__b__
!!!fok: '^a_^a_~a_\__
!! PHRAS[AUFTAKTIG]
!!!fkt: Liebeslieder
!!!bem: Grevenmacher
!! THILL, Mathias:
!! PR[39] 2K[4] 2G[6] 3K[4] 3G[0] 4A[0] 4Ü[0] 5A[0] 6K[0] 6G[4]
!! 7K[0] 7G[0] 8A[4] MEHR[0] SI[22] ABS[51] SR[10] SP[12]
!! ST[10] 2k[12] 2g[20] 3k[2] 3g[2] 4d[0] 4ü[0] 5d[4] 6k[0] 6g[0]
!! 7k[0] 7g[0] 8d[0] mehr[0] si[39] dm[-17] sr[31] sp[8]
!! 1F[74] 2F[19] 3F[7] 4F[0] LF[0] 2P[0] 3P[0] 4P[0] TRI[0] DF[3] AB[57]
!! TF[0] U3K[0] U3[0] U4[0] U4Ü[0] U5[13] U6K[0] U6[2] U7K[0] U7[2]
!! N1[8] N2K[0] N2[10] N3K[0] N3[27] N4[17] N4Ü[0] N5[21] N6K[0] N6[0]
!!!n7k: 0] N7[0] O1[0] O2K[0] O2[0] O3K[0] O3[0] HÖ[0
